X:0547
T:March 30th. Regt.
C:by Mr. Alphy
M:C
L:1/8
Q:1/2=76
I: :: ::
Z:Jack Campin * www.campin.me.uk * 2009
K:D
(AB/c/)|d>AF>A  d>fe>c |d>AF>A d>fe>c|.d(def)  .e(efg)|f>ed>c d>fe>g|
        f2 a4      fd  |ec a4     ec | f>dc>B (Tc2 B2)|A2 A>A A2   ::
 A>c   |e>cA>c (ec)(fd)|e>cA>c ecfd  |.g(gfe)  .f(fed)|cdec   A2
 AB/c/ |d>AFA   d>fe>c |defg   a2 g2 |.f(fed)  .e(edc)|d2d>d  d2   :|

